X:1
T:Die Moritat von Mackie Messer (1928)
T:Und der Haifisch
T:Die Moritat von Mackie Messer (1928)
T:Kurt Weill
T:Bertolt Brecht
C:Kurt Weill
Z:Bertolt Brecht
%%score 1 { ( 2 4 ) | 3 }
L:1/8
M:2/2
K:C
V:1 treble nm=" "
V:2 treble nm="Piano"
V:4 treble 
V:3 bass 
V:1
 E3 G |"C" A4 A4 | z4 E3 G |"Dm" A4 A4 | z4 D3 F |"G7" A4 A4 | z4 D3 F |"C" A8 | z4 G3 B | %9
w: 1.~Und der|Hai- fisch|der hat|Zäh- ne|und die|trägt er|im Ge-|sicht|und Mac-|
w: 2.~Ach, es|sind des|Hai- fischs|Flos- sen|rot, wenn|die- ser|Blut ver-|gießt!|Ma- ckie|
w: 3.~An der|Them- se|grü- nem|Was- ser|fal- len|plötz- lich|Leu- te|um!|Es ist|
w: 4.~An ’nem|schö- nen|blau- en|Sonn- tag|liegt ein|to- ter|Mann am|Stränd|und ein|
w: 5.~Und Schmul|Mei- er|bleibt ver-|schwun- den|und so|man- cher|rei- che|Mann|und sein|
"Am" d4 c4 | z4 B3 A |"Dm" c4 D4 | z4 E3 F | c4 D4 | z4 c3 B |"C" A8- | A4 |] E3 G |"C" A4 A4 | %19
w: heath der|hat ein|Mes- ser,|doch das|Mes- ser|sieht man|nicht.|_|6.~Jen- ny|Tow- ler|
w: Mes- ser|trägt ’nen|Hand- schuh|drauf man|kein- ne|Un- tat|liest.|_|7.~Wo ist|Al- fons|
w: we- der|Pest noch|Cho- lera|doch es|heißt: Mac-|heath geht|um.|_|8.~Und das|gro- ße|
w: Mensch geht|um die|Eck- e|den man|Ma- ckie|Mes- ser|nennt.|_|9.~Und die|min- der-|
w: Geld hat|Ma- ckie|Mes- ser|dem man|nichts be-|wei- sen|kann.|_|||
 z4 (E2 E) G |"Dm" A4 A4 | z4 D3 F |"G7" A4 A4 | z4 D3 F |"C" A8 | z4 G3 B |"Am" d4 c4 | z4 B3 A | %28
w: ward er ge-|fun- den|mit ’nem|Mes- ser|in der|Brust|und am|Kai geht|Ma- ckie|
w: Glite, * der|Fuhr- herr?|Kommt das|je ans|Son- nen-|licht?|Wer es|im- mer|wis- sen|
w: Feu- * in|So- ho,|Sie- ben|Kin- der|und ein|Greis!|In der|Men- ge|Ma- ckie|
w: jähr- * ’ge|Wit- we,|der- en|Na- men|je- der|weiß,|wach- te|auf und|war ge-|
w: |||||||||
"Dm" (c2 c2) D4 | z4 E3 F | c4 D4 | z4 c3 B |"C" A8- | A4 |] %34
w: Mes- ser, ser,|der von|al- lem|nichts ge-|wusst.|_|
w: kön- * nte|Ma- ckie|Mes- ser|weiß es|nicht.|_|
w: Mes- * den|man nichts|fragt und|der nichts|weiß.|_|
w: schän- * det.|Ma- ckie|wel- ches|war dein|Preis?|_|
w: ||||||
V:2
 E3 G | A4 A4- | A4 (E3 G | A4) A4- | A4 (D3 F | A4) A4- | A4 D3 F | A8- | A4 (G3 B | d4 c4-) | %10
 c4 B3 A | c4 D4- | D4 E3 F | c4 D4- | D4 [CDFc]2 [B,DFB]2 | A8- | A4 |] E3 G | A4 A4- | A4 (E3 G | %20
 A4) A4- | A4 (D3 F | A4) A4- | A4 D3 F | A8- | A4 (G3 B | d4 c4-) | c4 B3 A | c4 D4- | D4 E3 F | %30
 c4 D4- | D4 [CDFc]2 [B,DFB]2 | A8- | A4 |] %34
V:3
 z4 | C,4 G,,4 | C,4 G,,4 | C,4 G,,4 | C,4 G,,4 | D,4 G,,4 | D,4 G,,4 | C,4 G,,4 | C,4 G,,4 | %9
 A,,4 E,,4 | A,,4 E,,4 | D,4 A,,4 | D,4 A,,4 | D,4 G,,4 | D,4 G,,4 | C,4 G,,4 | C,4 |] z4 | %18
 C,4 G,,4 | C,4 G,,4 | C,4 G,,4 | C,4 G,,4 | D,4 G,,4 | D,4 G,,4 | C,4 G,,4 | C,4 G,,4 | %26
 A,,4 E,,4 | A,,4 E,,4 | D,4 A,,4 | D,4 A,,4 | D,4 G,,4 | D,4 G,,4 | C,4 G,,4 | C,4 |] %34
V:4
 x4 | [A,CE]2 [A,CE]2 [A,CE]2 [A,CE]2 | [A,CE]2 [A,CE]2 [A,CE]2 [A,CE]2 | %3
 [CDF]2 [CDF]2 [CDF]2 [CDF]2 | [CDF]2 [CDF]2 [CDF]2 [CDF]2 | [B,DF]2 [B,DF]2 [B,DF]2 [B,DF]2 | %6
 [B,DF]2 [B,DF]2 [A,B,]2 [A,B,]2 | [A,CE]2 [A,CE]2 [A,CE]2 [A,CE]2 | [A,CE]2 [A,CE]2 [CE]2 [CE]2 | %9
 [DEA]2 [DEA]2 [CEA]2 [CEA]2 | [CEA]2 [CEA]2 [CE]2 [CE]2 | [CDF]2 [CDF]2 [A,C]2 [A,C]2 | %12
 [A,C]2 [A,C]2 [A,C]2 [A,C]2 | [CDF]2 [CDF]2 [A,C]2 [A,C]2 | [A,C]2 [A,C]2 x2 x2 | %15
 [A,CE]2 [A,CE]2 [A,CE]2 [A,CE]2 | [A,CE]4 |] x4 | [A,CE]2 [A,CE]2 [A,CE]2 [A,CE]2 | %19
 [A,CE]2 [A,CE]2 [A,CE]2 [A,CE]2 | [CDF]2 [CDF]2 [CDF]2 [CDF]2 | [CDF]2 [CDF]2 [CDF]2 [CDF]2 | %22
 [B,DF]2 [B,DF]2 [B,DF]2 [B,DF]2 | [B,DF]2 [B,DF]2 [A,B,]2 [A,B,]2 | %24
 [A,CE]2 [A,CE]2 [A,CE]2 [A,CE]2 | [A,CE]2 [A,CE]2 [CE]2 [CE]2 | [DEA]2 [DEA]2 [CEA]2 [CEA]2 | %27
 [CEA]2 [CEA]2 [CE]2 [CE]2 | [CDF]2 [CDF]2 [A,C]2 [A,C]2 | [A,C]2 [A,C]2 [A,C]2 [A,C]2 | %30
 [CDF]2 [CDF]2 [A,C]2 [A,C]2 | [A,C]2 [A,C]2 x2 x2 | [A,CE]2 [A,CE]2 [A,CE]2 [A,CE]2 | [A,CE]4 |] %34

